assets/svgs/icon-money.svg

<svg width="32" height="32" viewBox="0 0 32 32" fill="none" xmlns="http://www.w3.org/2000/svg" class="svg__icon-money">
  <path d="M28.9999 24.687H3.06957V7.40015H28.9999V24.687Z" stroke="#0B6AB7" stroke-width=".836461"
    stroke-linecap="round" stroke-linejoin="round" class="svg__stroke--primary-blue-03" />
  <path d="M7.46113 7.3999s-.07507 1.92225-1.30697 3.1542C4.92225 11.786 3 11.861 3 11.861" stroke="#0B6AB7"
    stroke-width=".836461" class="svg__stroke--primary-blue-03" />
  <path d="M7.46113 24.687s-.07507-1.9222-1.30697-3.1541C4.92225 20.301 3 20.2259 3 20.2259" stroke="#0B6AB7"
    stroke-width=".836461" class="svg__stroke--primary-blue-03" />
  <path d="M24.5389 7.40015s.075 1.92225 1.3069 3.15415C27.0778 11.7862 29 11.8613 29 11.8613" stroke="#0B6AB7"
    stroke-width=".836461" class="svg__stroke--primary-blue-03" />
  <path d="M24.5389 24.687s.075-1.9222 1.3069-3.1541C27.0778 20.301 29 20.2259 29 20.2259" stroke="#0B6AB7"
    stroke-width=".836461" class="svg__stroke--primary-blue-03" />
  <circle cx="15.9999" cy="16.0435" r="5.99464" stroke="#0B6AB7" stroke-width=".836461" class="svg__stroke--primary-blue-03" />
  <path
    d="M15.6634 13.686c.186 0 .3368.1508.3368.3368v.3368h.3368v-.3368c0-.186.1508-.3368.3368-.3368s.3368.1508.3368.3368v.3368h.3565c.186 0 .3368.1508.3368.3368s-.1508.3368-.3368.3368H14.97v.6735h2.3971c.186 0 .3368.1508.3368.3368v1.3471c0 .186-.1508.3368-.3368.3368h-.3565v.3368c0 .186-.1508.3368-.3368.3368s-.3368-.1508-.3368-.3368v-.3368h-.3368v.3368c0 .186-.1508.3368-.3368.3368s-.3368-.1508-.3368-.3368v-.3368h-.6933c-.186 0-.3368-.1508-.3368-.3368s.1508-.3367.3368-.3367h2.3971v-.6736h-2.3971c-.186 0-.3368-.1508-.3368-.3368v-1.3471c0-.186.1508-.3368.3368-.3368h.6933v-.3368c0-.186.1508-.3368.3368-.3368Z"
    fill="#0B6AB7" class="svg__fill--primary-blue-03" />
</svg>

<svg width="32" height="32" viewBox="0 0 32 32" fill="none" xmlns="http://www.w3.org/2000/svg" class="svg__icon-money">
<path d="M28.9999 24.687C20.3564 24.687 11.713 24.687 3.06958 24.687V7.40015H28.9999V24.687Z" stroke="#0B6AB7" stroke-width="0.836461" stroke-linecap="round" stroke-linejoin="round" class="svg__stroke--primary-blue-03"/>
<path d="M7.46113 7.3999C7.46113 7.3999 7.38606 9.32215 6.15416 10.5541C4.92225 11.786 3 11.861 3 11.861" stroke="#0B6AB7" stroke-width="0.836461" class="svg__stroke--primary-blue-03"/>
<path d="M7.46113 24.687C7.46113 24.687 7.38606 22.7648 6.15416 21.5329C4.92225 20.301 3 20.2259 3 20.2259" stroke="#0B6AB7" stroke-width="0.836461" class="svg__stroke--primary-blue-03"/>
<path d="M24.5389 7.40015C24.5389 7.40015 24.6139 9.3224 25.8458 10.5543C27.0778 11.7862 29 11.8613 29 11.8613" stroke="#0B6AB7" stroke-width="0.836461" class="svg__stroke--primary-blue-03"/>
<path d="M24.5389 24.687C24.5389 24.687 24.6139 22.7648 25.8458 21.5329C27.0778 20.301 29 20.2259 29 20.2259" stroke="#0B6AB7" stroke-width="0.836461" class="svg__stroke--primary-blue-03"/>
<circle cx="15.9999" cy="16.0435" r="5.99464" stroke="#0B6AB7" stroke-width="0.836461" class="svg__stroke--primary-blue-03"/>
<path d="M15.6635 13.686C15.8495 13.686 16.0002 13.8368 16.0002 14.0228V14.3596H16.337V14.0228C16.337 13.8368 16.4878 13.686 16.6738 13.686C16.8598 13.686 17.0106 13.8368 17.0106 14.0228V14.3596H17.3672C17.5532 14.3596 17.704 14.5104 17.704 14.6964C17.704 14.8824 17.5532 15.0332 17.3672 15.0332H14.9701V15.7067H17.3672C17.5532 15.7067 17.704 15.8575 17.704 16.0435V17.3906C17.704 17.5766 17.5532 17.7274 17.3672 17.7274H17.0106V18.0642C17.0106 18.2502 16.8598 18.401 16.6738 18.401C16.4878 18.401 16.337 18.2502 16.337 18.0642V17.7274H16.0002V18.0642C16.0002 18.2502 15.8495 18.401 15.6635 18.401C15.4775 18.401 15.3267 18.2502 15.3267 18.0642V17.7274H14.6333C14.4473 17.7274 14.2965 17.5766 14.2965 17.3906C14.2965 17.2046 14.4473 17.0539 14.6333 17.0539H17.0304V16.3803H14.6333C14.4473 16.3803 14.2965 16.2295 14.2965 16.0435V14.6964C14.2965 14.5104 14.4473 14.3596 14.6333 14.3596H15.3267V14.0228C15.3267 13.8368 15.4775 13.686 15.6635 13.686Z" fill="#0B6AB7" class="svg__fill--primary-blue-03"/>
</svg>
